rospo-icon-theme-classic-common/16x16/status/package-reinstall.svg

<svg height="16" viewBox="0 0 16 16" width="16" xmlns="http://www.w3.org/2000/svg"><rect fill="#8fb633" height="16" rx=".8" transform="matrix(0 -1 -1 0 0 -1036.3622)" width="16" x="-1052.36" y="-16"/><path d="m3 3v8 2h2 2v-2h-2v-.617188-5.382812h6v4h-2l1.5 2 1.5 2 1.5-2 1.5-2h-2v-6z" fill="#fff" transform=""/></svg>

<svg xmlns="http://www.w3.org/2000/svg" width="16" height="16" version="1.1" viewBox="0 0 16 16">
 <g transform="translate(0,-1036.3622)">
  <rect style="fill:#8fb633" width="16" height="16" x="-1052.36" y="-16" rx=".8" ry=".8" transform="matrix(0,-1,-1,0,0,0)"/>
  <path style="fill:#ffffff" d="M 3 3 L 3 11 L 3 13 L 5 13 L 7 13 L 7 11 L 5 11 L 5 10.382812 L 5 5 L 11 5 L 11 9 L 9 9 L 10.5 11 L 12 13 L 13.5 11 L 15 9 L 13 9 L 13 3 L 3 3 z" transform="translate(0,1036.3622)"/>
 </g>
</svg>
